X:10
T:Grove House. WR1776.10, The
B:Wm.Randall CDs 1776
Z:vmp.Steve Mansfield 2015
M:2/4
L:1/8
W:Hands 3 round with the 2d Lady then with the 2d Gent:
W:cast off 2 Cu. lead up to the top cast off
Q:2/4=75
K:Bb
B,2 DF | Bdfd | ecBA | BFDB, |
B2 DF | Bdfd | ecBA | B2 B,2 :|
|: b2 fd | gedc | dfGc | BAGF |
B,2 DF | Bdfb | GecA | B2 B,2 :|

